X:1
T:The Pentecostal Power
T:The Pentecostal Power
T:Lelia Naylor Morris
T:Lelia Naylor Morris, 1900
T:Public Domain Courtesy of the Cyber Hymnal™
T:Public Domain Courtesy of the Cyber Hymnal™
C:Lelia Naylor Morris
Z:Public Domain
Z:Courtesy of the Cyber Hymnal™
%%score ( 1 2 ) ( 3 4 )
L:1/8
Q:1/4=103
M:4/4
K:Ab
V:1 treble 
V:2 treble 
V:3 bass 
V:4 bass 
V:1
 ([Ec]>[DB]) | [CA]2 [CA]2 (AE) (CE) | [CA]2 [EB]2 [Ec]2 [_GA]2 | [FA]3 [FB] [FA]2 [DF]2 | %4
w: 1.~The *|power that fell * at *|Pen- te- cost, When|in that up- per|
w: 2.~“Ye *|shall have power,” * said *|Je- sus “when The|Ho- ly Ghost is|
w: 3.~The *|waver- ing shall * stead- *|fast be- come; The|weak in faith be|
w: 4.~Breathe *|on us now * the *|Ho- ly Ghost, The|young and old in-|
 [CE]6 [CA]2 | [EA]3 [EG] [EG]2 [EB]2 | [EB]3 [EA] [EA]2 [Ec]2 | [=DB]3 [DA] [DG]2 [DA]2 | %8
w: room, Up-|on the watch- ing,|wait- ing ones, The|Ho- ly Ghost had|
w: come.” Your|loos- ened tongues shall|speak His praise, Your|lips no more be|
w: strong; With|ho- ly bold- ness|go- ing forth, De-|nounc- ing sin and|
w: spire; Let|each re- ceive the|Pen- te- cost, Send|hearts and tongues of|
 [_DB]6 [Ec]2 | [Ee]2 [Ee]2 [Ee]2 ([Ec][DB]) | [CA]2 [DF]2 [CE]3 [CE] | [EA]2 [EB]2 (c e2) [Ec] | %12
w: come, Re-|main- eth ev- er- *|more the same, Un-|chang- ing still, * O|
w: dumb; The|tim- id, shrink- ing *|ones be brave, To|reach a hand * the|
w: wrong; With|burn- ing zeal each *|heart a- flame, A|whole sal- va- * tion|
w: fire; Thou|won- der- ful trans- *|form- ing power, Come|now in this * ac-|
 [CA]2 [DB]2 [CA]3 ||"^Refrain" [CE] | [CA]3 [Ec] [CA]3 [EA] | [FB][FA][FA][DF] [CE]3 [CA] | %16
w: praise His name!||||
w: lost to save.|The|power, the power, the|Pen- te- cost- al power, Is|
w: to pro- claim.||||
w: cept- ed hour.||||
 [EA]>[EG] [EG][EA] [EB]3 [EB] | [EB]>[EA] [EA][EB] [Ac]3 [Ec] | [Ee]3 [Ec] [Ee]3 [EA] | %19
w: |||
w: just the same to- day, is|just the same to- day; The|power, the power, the|
w: |||
w: |||
 [FB][FA][FA][DF] [CE]2 (c>d) | [Ee]3 [Ec] [EA]2 [EB]2 | [EA]6 |] %22
w: |||
w: Pen- te- cost- al power, Is *|just the same to-|day.|
w: |||
w: |||
V:2
 x2 | x4 AECE | x8 | x8 | x8 | x8 | x8 | x8 | x8 | x8 | x8 | x4 E3 x | x7 || x | x8 | x8 | x8 | %17
 x8 | x8 | x6 E2 | x8 | x6 |] %22
V:3
 A,2 | A,2 A,2 A,E, (C,E,) | A,2 [E,G,]2 [A,,A,]2 [A,,C]2 | [D,D]3 [D,D] [D,D]2 [D,A,]2 | %4
w: ~|~ ~ ~ ~ ~ *|~ ~ ~ ~|~ ~ ~ ~|
 [A,,A,]6 [A,,A,]2 | [E,C]3 [E,B,] [E,B,]2 [E,D]2 | [A,D]3 [A,C] [A,C]2 [A,,A,]2 | %7
w: ~ ~|~ ~ ~ ~|~ ~ ~ ~|
 [B,,F,]3 [B,,F,] [B,,B,]2 [B,,B,]2 | [E,G,]6 A,2 | [A,C]2 [A,C]2 [A,C]2 [E,G,]2 | %10
w: ~ ~ ~ ~|~ ~|~ ~ ~ ~|
 [F,A,]2 [D,A,]2 [A,,A,]3 [A,,A,] | [C,A,]2 [E,G,]2 (A, C2) A, | [E,A,]2 [E,G,]2 [A,,A,]3 || z | %14
w: ~ ~ ~ ~|~ ~ ~ * ~|~ ~ The||
 z [A,,E,][A,,E,] z2 [A,,E,][A,,E,][A,,C] | [D,D][D,D][D,D][D,A,] [A,,A,]3 [A,,A,] | %16
w: power, the power, ~ ~|~ ~ ~ ~ Is just|
 [E,C]>[E,B,] [E,B,][E,C] [E,D][E,D][E,D][E,D] | [A,D]>[A,C] [A,C][A,D] [A,E][A,E][A,E] z | %18
w: the same, the same to- day, Is just|the same, the same to- day; The|
 z [A,C][A,C] z2 [A,C][A,C][A,C] | [D,D][D,D][D,D][D,A,] A,2 (A,>B,) | %20
w: power, the power, ~ ~|~ ~ ~ ~ ~ ~ *|
 [E,C]>[E,C] [E,C][E,A,] [E,C]2 [E,D]2 | [A,,C]6 |] %22
w: just the same * * *||
V:4
 A,2 | A,2 A,2 (A,E,)C,E, | A,2 x6 | x8 | x8 | x8 | x8 | x8 | x6 A,2 | x8 | x8 | x4 A,3 A, | x7 || %13
 x | x8 | x8 | x8 | x8 | x8 | x4 A,2 A,2 | x8 | x6 |] %22

